usr/share/icons/biglinux-icons-material-dark/22/actions/dependency.svg

<svg xmlns="http://www.w3.org/2000/svg" viewBox="0 0 22 22">
  <defs id="defs3051">
    <style type="text/css" id="current-color-scheme">
      .ColorScheme-Text {
        color:#dedede;
      }
      </style>
  </defs>
 <path 
    style="fill:currentColor;fill-opacity:1;stroke:none" 
	d="M 10.5 3 L 7 10 L 7.8945312 10.447266 L 10 6.2363281 L 10 10 L 11 10 L 11 6.2363281 L 13.105469 10.447266 L 14 10 L 10.5 3 z M 10 11 L 10 13 L 11 13 L 11 11 L 10 11 z M 10 14 L 10 16 L 11 16 L 11 14 L 10 14 z M 10 17 L 10 19 L 11 19 L 11 17 L 10 17 z "
	class="ColorScheme-Text"
    />
</svg>

<svg xmlns="http://www.w3.org/2000/svg" viewBox="0 0 22 22">
<defs id="defs3051">
<style id="current-color-scheme" type="text/css">
.ColorScheme-Text{color:#dedede}
</style>
</defs>
<path d="M10.5 3 7 10l.895.447L10 6.237V10h1V6.236l2.105 4.211L14 10zm-.5 8v2h1v-2zm0 3v2h1v-2zm0 3v2h1v-2z" class="ColorScheme-Text" style="fill:currentColor;fill-opacity:1;stroke:none"/>
</svg>
